logos/julia.svg

<?xml version="1.0" encoding="UTF-8"?>
<svg width="512px" height="330px" viewBox="0 0 512 330" version="1.1" xmlns="http://www.w3.org/2000/svg" xmlns:xlink="http://www.w3.org/1999/xlink" preserveAspectRatio="xMidYMid">
    <g>
				<path d="M353.09811,121.259123 C336.696491,121.240694 323.413565,107.932873 323.425839,91.5312485 C323.43813,75.1296238 336.740973,61.8417116 353.142601,61.8478455 C369.544229,61.8539837 382.837136,75.1518456 382.837136,91.5534749 C382.818717,107.964849 369.509495,121.259123 353.09811,121.259123 Z" fill="#CA3C32"></path>
				<path d="M424.491797,121.259123 C408.090178,121.240694 394.807252,107.932873 394.819526,91.5312485 C394.831817,75.1296238 408.134659,61.8417116 424.536287,61.8478455 C440.937916,61.8539837 454.230822,75.1518456 454.230822,91.5534749 C454.212403,107.964849 440.903181,121.259123 424.491797,121.259123 L424.491797,121.259123 Z" fill="#9259A3"></path>
				<path d="M388.811642,59.411315 C372.405666,59.411315 359.105994,46.1116245 359.105994,29.7056481 C359.105994,13.2996717 372.405666,0 388.811642,0 C405.217619,0 418.517309,13.2996717 418.517309,29.7056481 C418.526161,37.5867917 415.399316,45.1476944 409.826502,50.720508 C404.253689,56.2933216 396.692786,59.4201663 388.811642,59.411315 L388.811642,59.411315 Z" fill="#399746"></path>
				<path d="M73.998527,121.259123 C57.5925505,121.259123 44.2928789,107.959451 44.2928789,91.5534749 C44.2928789,75.1474985 57.5925505,61.8478268 73.998527,61.8478268 C90.4045034,61.8478268 103.704175,75.1474985 103.704175,91.5534749 C103.685781,107.951826 90.3968782,121.240729 73.998527,121.259123 Z" fill="#4D64AE"></path>
				<path d="M97.2623884,269.787363 C97.614556,280.167297 96.1344463,290.528065 92.889984,300.394194 C90.5789954,307.390295 86.4011828,313.622391 80.807462,318.417846 C75.3757779,322.869322 68.8953125,325.856771 61.9827592,327.0959 C53.9342895,328.658417 45.7490901,329.407609 37.5506981,329.332168 C32.1583961,329.387958 26.7758037,328.862008 21.4962973,327.763443 C17.3731493,326.930666 13.3930066,325.502761 9.6807923,323.524547 C6.83810826,322.055518 4.38882336,319.926701 2.53808591,317.3164 C0.914164911,315.223789 0.0228939544,312.655521 0.00142382564,310.006808 C-0.060449861,305.629899 1.89715569,301.468448 5.30838792,298.725337 C9.42430677,295.528707 14.5573702,293.928329 19.7606864,294.219424 C21.8902917,294.173857 24.0089308,294.536405 26.0022102,295.287493 C27.705965,295.944701 29.3118241,296.831854 30.7751401,297.924286 C32.142688,299.028493 33.4360666,300.221523 34.6468875,301.495639 C35.6815787,302.830725 36.6161384,304.065679 37.4171896,305.233878 C38.8411074,307.190523 40.5383808,308.932757 42.4571366,310.407334 C43.593428,311.189092 44.9193475,311.650281 46.2955068,311.742419 C47.4744858,311.755952 48.632693,311.431654 49.6332201,310.807859 C50.7531901,309.970913 51.5820996,308.803435 52.0029965,307.470146 C52.7360727,305.415796 53.1852487,303.270981 53.3380818,301.095114 C53.741749,297.706201 53.9201521,294.294242 53.872116,290.881711 L53.872116,135.110633 L97.2623884,123.16162 L97.2623884,269.787363 Z M160.678941,126.632841 L160.678941,226.964502 C160.66388,229.701626 161.197282,232.414035 162.247666,234.941637 C163.409266,237.262739 164.981029,239.354653 166.887087,241.116406 C168.85522,242.898394 171.112688,244.331886 173.562514,245.355302 C176.09757,246.423267 178.822218,246.968196 181.573026,246.957405 C183.435214,246.874079 185.262084,246.420198 186.946744,245.622319 C189.09887,244.634336 191.117494,243.378303 192.954628,241.88408 C195.135324,240.227932 197.157737,238.373123 198.995889,236.343476 C201.024138,234.186646 202.824877,231.826673 204.369607,229.300901 L204.369607,126.632841 L247.75988,126.632841 L247.75988,270.154512 L204.369607,270.154512 L204.369607,256.803659 C198.929011,261.585636 192.824353,265.554226 186.245824,268.585787 C180.400236,271.317883 174.040002,272.774252 167.588007,272.85806 C160.875384,272.953569 154.201747,271.822444 147.895499,269.520346 C142.063677,267.284555 136.682005,264.017111 132.007984,259.874355 C127.571446,255.858821 123.975238,251.003373 121.427432,245.588942 C118.864222,240.057621 117.553585,234.028692 117.588361,227.932439 L117.588361,126.632841 L160.678941,126.632841 Z M334.24003,135.511159 L377.630303,123.562145 L377.630303,270.154512 L334.24003,270.154512 L334.24003,135.511159 Z M310.876038,270.154512 L267.485765,270.154512 L267.485765,70.5258813 L310.876038,58.5768678 L310.876038,270.154512 Z M511.138834,270.154512 L467.748561,270.154512 L467.748561,258.739532 C465.378785,260.775538 463.009008,262.644657 460.705986,264.313514 C458.294095,266.052988 455.723849,267.561611 453.029246,268.819427 C450.008123,270.138342 446.851948,271.123248 443.616894,271.756614 C439.454306,272.505451 435.229312,272.851945 431.000338,272.791305 C424.956285,272.881351 418.940809,271.944607 413.210326,270.021003 C408.310702,268.32233 403.779618,265.705629 399.859473,262.310886 C396.257971,259.02649 393.401398,255.009078 391.481813,250.528758 C389.52899,245.915825 388.540783,240.952071 388.578002,235.942951 C388.484154,230.861018 389.521636,225.821816 391.615321,221.190258 C393.762937,216.768503 396.640273,212.740233 400.12649,209.274622 C403.914766,205.590103 408.140718,202.384208 412.709669,199.728762 C417.711839,196.827453 422.896073,194.252059 428.230036,192.018644 C433.804017,189.715622 439.578261,187.612863 445.486014,185.643612 L463.009008,179.936122 L467.781938,178.901431 L467.781938,164.682773 C467.858502,160.793219 467.363696,156.913493 466.313344,153.167662 C465.626925,150.342788 464.315232,147.707996 462.474974,145.457544 C460.935485,143.465996 458.864339,141.950241 456.500467,141.08514 C453.999143,140.171712 451.35293,139.719368 448.690218,139.750054 C445.752086,139.675788 442.824375,140.127944 440.045541,141.08514 C437.925495,141.871352 436.017268,143.139694 434.47156,144.790002 C433.056205,146.295769 432.015639,148.113902 431.434241,150.096966 C430.777912,152.260065 430.462611,154.512217 430.499681,156.772392 C430.515968,159.415648 430.202017,162.050588 429.565121,164.616018 C429.076702,167.044222 428.037598,169.327968 426.527802,171.291445 C424.923431,173.19115 422.869697,174.659742 420.553295,175.563718 C417.491225,176.838516 414.188154,177.430791 410.873927,177.299329 C408.025802,177.333519 405.192683,176.882026 402.496267,175.964243 C400.155481,175.08319 397.995093,173.782433 396.121234,172.125873 C394.366206,170.451641 392.929922,168.47251 391.882339,166.284875 C390.910409,163.982312 390.410996,161.507947 390.413745,159.00866 C390.442107,153.998163 392.225428,149.156032 395.453692,145.324036 C399.188018,140.782593 403.79611,137.0371 409.004808,134.309582 C415.240278,131.051453 421.886566,128.64891 428.76407,127.166875 C436.556104,125.363383 444.530619,124.46737 452.528589,124.496705 C461.366486,124.347858 470.189009,125.289525 478.796392,127.300384 C485.331372,128.759026 491.542583,131.406427 497.120438,135.110633 C501.650389,138.201778 505.306184,142.409391 507.734366,147.326664 C510.05304,152.354776 511.194549,157.845438 511.072079,163.381064 L511.138834,270.154512 Z M467.748561,196.157409 C463.441055,198.00163 459.240098,200.085394 455.165382,202.398933 C451.081203,204.585916 447.214294,207.156405 443.616894,210.075673 C440.363124,212.618263 437.496109,215.620195 435.105725,218.987367 C433.004101,221.833911 431.837872,225.262625 431.767886,228.800244 C431.760153,231.440592 432.11962,234.069198 432.83608,236.610494 C433.478135,238.869361 434.457073,241.018524 435.739891,242.985526 C436.853773,244.62458 438.242698,246.058673 439.845278,247.224422 C441.324455,248.256112 443.081836,248.81475 444.885225,248.826524 C448.658712,248.68714 452.325041,247.534206 455.499153,245.488811 C459.66969,242.956476 463.702872,240.204554 467.581675,237.244659 L467.748561,196.157409 Z" fill="#1A1A1A"></path>
		</g>
</svg>

<svg preserveAspectRatio="xMidYMid" viewBox="0 0 512 330" xmlns="http://www.w3.org/2000/svg">
  <path fill="#CA3C32" d="M353.098 121.26c-16.402-.02-29.684-13.327-29.672-29.729.012-16.401 13.315-29.69 29.717-29.683 16.401.006 29.694 13.304 29.694 29.705-.018 16.412-13.328 29.706-29.739 29.706Z"/>
  <path fill="#9259A3" d="M424.492 121.26c-16.402-.02-29.685-13.327-29.672-29.729.012-16.401 13.315-29.69 29.716-29.683 16.402.006 29.695 13.304 29.695 29.705-.019 16.412-13.328 29.706-29.74 29.706Z"/>
  <path fill="#399746" d="M388.812 59.411c-16.406 0-29.706-13.3-29.706-29.705C359.106 13.3 372.406 0 388.812 0s29.705 13.3 29.705 29.706a29.672 29.672 0 0 1-29.705 29.705Z"/>
  <path fill="#4D64AE" d="M73.999 121.26c-16.406 0-29.706-13.3-29.706-29.707 0-16.406 13.3-29.705 29.706-29.705s29.705 13.3 29.705 29.705c-.018 16.399-13.307 29.688-29.705 29.706Z"/>
  <path fill="#1A1A1A" d="M97.262 269.787a88.383 88.383 0 0 1-4.372 30.607 40.453 40.453 0 0 1-12.083 18.024 41.154 41.154 0 0 1-18.824 8.678 122.294 122.294 0 0 1-24.432 2.236 74.998 74.998 0 0 1-16.055-1.569 43.39 43.39 0 0 1-11.815-4.238 20.026 20.026 0 0 1-7.143-6.209 12.083 12.083 0 0 1-2.537-7.31 14.219 14.219 0 0 1 5.307-11.28 21.595 21.595 0 0 1 14.453-4.507c2.13-.045 4.248.317 6.241 1.068a20.026 20.026 0 0 1 4.773 2.637 40.053 40.053 0 0 1 3.872 3.572c1.035 1.335 1.97 2.57 2.77 3.738a25.3 25.3 0 0 0 5.04 5.173 7.677 7.677 0 0 0 3.839 1.335 6.175 6.175 0 0 0 3.337-.934 6.675 6.675 0 0 0 2.37-3.338 23.965 23.965 0 0 0 1.335-6.375c.404-3.389.582-6.8.534-10.213V135.11l43.39-11.95v146.626Zm63.417-143.154v100.332a20.494 20.494 0 0 0 1.569 7.977 21.528 21.528 0 0 0 4.64 6.174 23.364 23.364 0 0 0 6.675 4.24 20.427 20.427 0 0 0 8.01 1.601 14.018 14.018 0 0 0 5.374-1.335 28.104 28.104 0 0 0 6.008-3.738 44.291 44.291 0 0 0 6.04-5.54 43.123 43.123 0 0 0 5.375-7.043V126.633h43.39v143.522h-43.39v-13.351a74.998 74.998 0 0 1-18.124 11.782 45.46 45.46 0 0 1-18.658 4.272 55.139 55.139 0 0 1-19.693-3.338 52.035 52.035 0 0 1-15.887-9.646 45.26 45.26 0 0 1-10.58-14.285 41.432 41.432 0 0 1-3.84-17.657v-101.3h43.09Zm173.561 8.878 43.39-11.949v146.593h-43.39V135.51Zm-23.364 134.644h-43.39V70.525l43.39-11.948v211.578Zm200.263 0h-43.39V258.74a109.087 109.087 0 0 1-7.043 5.574 47.396 47.396 0 0 1-7.677 4.505 45.26 45.26 0 0 1-9.412 2.938A65.92 65.92 0 0 1 431 272.79a53.403 53.403 0 0 1-17.79-2.77 40.82 40.82 0 0 1-13.35-7.71 34.145 34.145 0 0 1-8.378-11.782 36.715 36.715 0 0 1-2.904-14.586 34.278 34.278 0 0 1 3.037-14.753 43.757 43.757 0 0 1 8.511-11.915 64.618 64.618 0 0 1 12.584-9.546 134.376 134.376 0 0 1 15.52-7.71c5.574-2.303 11.348-4.406 17.256-6.375l17.523-5.708 4.773-1.035v-14.218c.077-3.89-.418-7.77-1.469-11.515a19.425 19.425 0 0 0-3.838-7.71 13.35 13.35 0 0 0-5.975-4.373 22.029 22.029 0 0 0-7.81-1.335 24.632 24.632 0 0 0-8.644 1.335 14.586 14.586 0 0 0-5.574 3.705 13.15 13.15 0 0 0-3.038 5.307 21.762 21.762 0 0 0-.934 6.675 31.742 31.742 0 0 1-.935 7.844 16.188 16.188 0 0 1-3.037 6.675 14.92 14.92 0 0 1-5.975 4.273 22.83 22.83 0 0 1-9.68 1.735 25.066 25.066 0 0 1-8.377-1.335 20.56 20.56 0 0 1-6.375-3.838 20.026 20.026 0 0 1-4.239-5.841 18.658 18.658 0 0 1-1.468-7.276 21.428 21.428 0 0 1 5.04-13.685 43.924 43.924 0 0 1 13.55-11.014 78.27 78.27 0 0 1 19.76-7.143 103.703 103.703 0 0 1 23.765-2.67c8.837-.15 17.66.793 26.267 2.803a54.638 54.638 0 0 1 18.324 7.81 31.875 31.875 0 0 1 10.614 12.217 36.414 36.414 0 0 1 3.338 16.054l.067 106.774Zm-43.39-73.998a125.631 125.631 0 0 0-12.584 6.242 73.062 73.062 0 0 0-11.548 7.677 42.623 42.623 0 0 0-8.511 8.911 17.09 17.09 0 0 0-3.338 9.813 28.476 28.476 0 0 0 1.068 7.81 23.364 23.364 0 0 0 2.904 6.376 17.19 17.19 0 0 0 4.105 4.238 8.912 8.912 0 0 0 5.04 1.603 21.028 21.028 0 0 0 10.614-3.338 137.88 137.88 0 0 0 12.083-8.244l.167-41.088Z"/>
</svg>
